X: 110
T:Myghtern Sweden
M:2/4
L:1/8
R:Polka
Z:bil@blueskiesink.com
K:G
AB/2A/2 FG/2A/2|BB A2|AB/2c/2 de|fe d2:|!
fg/2f/2 ed/2/c/2|de/2d/2 cB/2A/2|B/2c/2d/2e/2 c/2d/2/e/2f/2|d/2e/2/f/2g/
2 e2:|

